X: 1
T: Allan Water
O: Trad
N: Highland Whisky handwritten ms.
Z: John Chambers <jc:trillian.mit.edu>
M: C
L: 1/8
K: G
{f}g2 \
| "G"G3A B2ge | "C"dEGA "Em"B>ABd | "C"eBdA "D"B2 :|
g>a \
| "G"b>age d2ba | "C"gedB "D"A2GE | "G"g>age "Em"da |
| "Em"(3bag (3age "G/D"(3ged ba | "C"g>edB "D"A2g2 | "G"dG "Em"DEGA | "D7"B3A "G"G2 |]
